X: 32436
T: Piper's Whim, The
R: slip jig
M: 9/8
K: Gmajor
c||B2G GFG dBG|BGB dBd efg|B2G GFG dBG|AcA ecA ecA||
B2G GFG dBG|BGB dBd efg|B2G GFG dBG|AcA ecA ABc||
BdB gdB gdB|BdB gdB efg|BdB gdB gdB|AcA ecA ABc|
BdB gdB gdB|BdB gdB efg|BdB gdB gdB|AcA dBG G2c||

